allure-generator/src/main/javascript/components/side-nav/allure_logo.svg

<svg preserveAspectRatio="xMinYMin" viewBox="0 0 500 500" xmlns="http://www.w3.org/2000/svg"><path d="m142.143 167.216c-18.971 24.713-28.139 53.865-28.118 82.784h-75.828c-.032-45.047 14.248-90.457 43.798-128.953 5.699-7.425 11.794-14.367 18.231-20.821l53.622 53.622c-4.133 4.144-8.046 8.601-11.705 13.368zm305.902 286.596c-16.142 12.779-40.057 9.46-53.416-7.414-4.855-6.133-7.647-13.215-8.459-20.358h-.268v-13.566c-38.698 32.435-87.086 49.279-135.902 49.317v-75.826c35.204-.028 70.061-13.672 96.143-39.822l104.957 104.957c-.956.951-1.974 1.857-3.055 2.712zm-280.84-95.964c24.716 18.972 53.872 28.14 82.795 28.117v75.826c-45.051.035-90.467-14.245-128.966-43.797-7.42-5.696-14.358-11.786-20.808-18.22l53.621-53.621c4.141 4.129 8.595 8.039 13.358 11.695zm218.697-108.505h.05c-.193-34.979-13.825-69.564-39.81-95.485l53.621-53.621c40.567 40.468 61.808 94.494 62.018 149.106h.022v.657h-75.901zm-53.127-107.189c-24.711-18.968-53.859-28.135-82.775-28.117v-75.829c45.044-.03 90.45 14.25 128.942 43.797 7.425 5.699 14.368 11.794 20.821 18.232l-53.621 53.621c-4.143-4.133-8.6-8.045-13.367-11.704zm-178.927 11.694-53.622-53.622c40.633-40.733 94.935-61.981 149.774-62.018v75.829c-35.206.023-70.066 13.663-96.152 39.811zm203.989 178.938c18.124-23.612 27.301-51.275 28.065-78.916v-3.87h75.901v176.04h-.022c-.276 9.3-3.899 18.311-10.681 25.06l-104.957-104.957c4.129-4.141 8.038-8.594 11.694-13.357zm-319.64-82.786h75.828c.025 35.207 13.668 70.068 39.822 96.153l-53.621 53.621c-40.738-40.632-61.989-94.934-62.029-149.774z" fill="#aaa"/><g stroke-linecap="round"><path d="m959.719-348.102h.05c-.224-40.556-18.514-80.583-53.177-107.189-59.564-45.721-144.913-34.5-190.632 25.062-45.723 59.562-34.502 144.911 25.062 190.632 59.562 45.721 144.913 34.5 190.632-25.062 18.124-23.612 27.301-51.275 28.065-78.916zm75.901 0v176.697h-.022c-.315 10.61-4.986 20.845-13.736 27.772-16.142 12.779-40.057 9.46-53.416-7.414-4.855-6.133-7.647-13.215-8.459-20.358h-.268v-13.566c-74.412 62.368-184.652 67.093-264.868 5.52-92.78-71.22-110.258-204.167-39.039-296.947 71.218-92.782 204.169-110.26 296.947-39.042 54.098 41.526 82.596 104.038 82.839 167.338z" fill="#97cc64"/><path d="m-771.865 1283.908h.029c-.128-23.069-10.532-45.837-30.248-60.971-5.102-3.916-10.536-7.098-16.176-9.562l17.469-39.446c8.703 3.824 17.09 8.747 24.968 14.794 30.772 23.621 46.981 59.179 47.119 95.185h.013v85.278l-58.387-38.809c9.813-13.21 14.789-28.558 15.213-43.894z" fill="#97cc64"/><path d="m-928.57 1244.503c-26.008 33.88-19.625 82.428 14.256 108.435 33.88 26.007 82.429 19.624 108.434-14.256.254-.33.504-.662.752-.996l58.386 38.809v15.232h-.013c-.178 6.035-2.835 11.857-7.812 15.797-9.182 7.269-22.785 5.381-30.384-4.217-2.762-3.489-4.35-7.517-4.812-11.58h-.153v-7.717c-42.326 35.476-105.034 38.164-150.661 3.14-52.775-40.511-62.717-116.134-22.206-168.909 34.463-44.898 94.34-58.795 143.941-37.002l-17.469 39.446c-31.814-13.899-70.169-4.96-92.259 23.818z" fill="#97cc64"/></g><path d="m475.001 397.999a204.13 204.13 0 1 1 -87.344-299.645l-82.657 186.646z" fill="#fd5a3e" transform="matrix(.839525 0 0 .839525 -831.527832 694.893311)"/><path d="m-496.138 930.311h.029c-.128-23.069-10.532-45.837-30.248-60.971-33.881-26.007-82.429-19.624-108.435 14.256-26.008 33.88-19.625 82.428 14.256 108.435 33.88 26.007 82.429 19.624 108.434-14.256 10.31-13.431 15.529-29.166 15.964-44.889zm43.174 0v100.509h-.013c-.178 6.035-2.835 11.857-7.812 15.797-9.182 7.269-22.785 5.381-30.384-4.217-2.762-3.489-4.35-7.517-4.812-11.58h-.153v-7.717c-42.326 35.476-105.034 38.164-150.661 3.14-52.775-40.511-62.717-116.134-22.206-168.909 40.51-52.776 116.135-62.718 168.909-22.208 30.772 23.621 46.981 59.179 47.119 95.185z" fill="#97cc64" stroke-linecap="round"/><path d="m130.909 391.59a204.13 204.13 0 1 1 141.37 94.9l26.843-165.293a36.671 36.671 0 1 0 -25.397-17.049z" fill="#fd5a3e" transform="matrix(.839525 0 0 .839525 -615.465088 1170.302368)"/><path d="m-282.129 1409.048h.029c-.128-23.069-10.532-45.837-30.248-60.971-33.881-26.007-82.429-19.624-108.435 14.256-26.008 33.88-19.625 82.428 14.256 108.435 33.88 26.007 82.429 19.624 108.434-14.256 10.31-13.431 15.529-29.166 15.964-44.889zm43.174 0v100.509h-.013c-.178 6.035-2.835 11.857-7.812 15.797-9.182 7.269-22.785 5.381-30.384-4.217-2.762-3.489-4.35-7.517-4.812-11.58h-.153v-7.717c-42.326 35.476-105.034 38.164-150.661 3.14-52.775-40.511-62.717-116.134-22.206-168.909 40.51-52.776 116.135-62.718 168.909-22.208 30.772 23.621 46.981 59.179 47.119 95.185z" fill="#97cc64" stroke-linecap="round"/><path d="m-880.208 1706.368v100.509h-.013c-.178 6.035-2.835 11.857-7.812 15.797-9.182 7.269-22.785 5.381-30.384-4.217-2.762-3.489-4.35-7.517-4.812-11.58h-.153v-7.717c-42.326 35.476-105.034 38.164-150.661 3.14-15.963-12.253-28.007-27.719-35.921-44.793l38.378-17.773c25.285 54.596 100.191 61.347 134.831 12.151 34.639-49.195 3.033-117.441-56.892-122.842-30.034-2.707-58.946 12.106-74.294 38.063l-36.511-21.588c2.458-4.153 5.191-8.203 8.203-12.127 40.51-52.776 116.135-62.718 168.909-22.208 30.772 23.621 46.981 59.179 47.119 95.185z" fill="#97cc64" stroke-linecap="round"/><path d="m-933.609 930.311h.029c-.128-23.069-10.532-45.837-30.248-60.971-14.884-11.425-32.599-16.599-49.99-15.937l-1.63-43.101c27.094-1.035 54.693 7.025 77.881 24.824 30.772 23.621 46.981 59.179 47.119 95.185h.013v80.058l-56.004-36.981c8.238-12.41 12.442-26.461 12.83-40.502z" fill="#fd5a3e" stroke-linecap="round"/><path d="m-949.579 977.799c1.103-1.437 2.147-2.901 3.134-4.386l56.004 36.98v20.451h-.013c-.178 6.034-2.835 11.857-7.812 15.797-9.182 7.268-22.785 5.381-30.384-4.217-2.762-3.489-4.35-7.517-4.812-11.58h-.153v-7.717c-27.11 22.723-62.582 31.994-96.572 26.52l6.915-42.581c27.152 4.368 55.774-5.923 73.693-29.267z" fill="#ffd050"/><path d="m-1058.08 991.95c10.535 8.087 22.488 13.042 34.741 15.012l-6.915 42.58c-19.077-3.072-37.687-10.789-54.089-23.38-12.04-9.242-21.85-20.311-29.341-32.52l36.793-22.528c4.805 7.822 11.095 14.913 18.811 20.836z" fill="#aaa" stroke-linecap="round"/><path d="m165.292 136.169a204.13 204.13 0 1 1 -64.324 142.517l73.615 2.278a130.479 130.479 0 1 0 41.116-91.096z" transform="matrix(.025124 .073081 .07053 -.024247 -286.244751 1110.018799)"/><path d="m-1072.214 883.661c-20.059 26.13-20.85 60.985-4.619 87.495-.006.004-.011.007-.017.011l-36.776 22.517c-25.278-41.293-24.044-95.584 7.199-136.285 22.709-29.585 56.453-45.71 91.02-47.032l1.63 43.089c.001.004.001.008.002.012-22.194.847-43.859 11.199-58.439 30.193z" fill="#97cc64" stroke-linecap="round"/><path d="m-308.262 1135.753h.006c-.027-5.042-2.302-10.018-6.61-13.326-3.254-2.496-7.125-3.627-10.926-3.482l-.357-9.42c5.922-.226 11.955 1.535 17.023 5.425 6.724 5.163 10.266 12.934 10.297 20.803h.002v17.497l-12.239-8.082c1.8-2.712 2.719-5.783 2.804-8.852z" fill="#fd5a3e" stroke-linecap="round"/><path d="m-311.753 1146.132c.241-.314.47-.634.685-.959l12.24 8.082v4.47h-.002c-.04 1.319-.619 2.591-1.708 3.452-2.007 1.589-4.979 1.177-6.641-.921-.603-.763-.95-1.643-1.051-2.531h-.034v-1.687c-5.925 4.966-13.677 6.993-21.106 5.797l1.512-9.307c5.935.955 12.19-1.294 16.105-6.396z" fill="#ffd050"/><path d="m-335.465 1149.225c2.302 1.767 4.914 2.85 7.592 3.281l-1.512 9.306c-4.169-.672-8.236-2.358-11.821-5.11-2.631-2.02-4.775-4.439-6.412-7.108l8.041-4.923c1.05 1.709 2.425 3.259 4.112 4.554z" fill="#aaa" stroke-linecap="round"/><path d="m-338.554 1125.558c-4.385 5.711-4.558 13.327-1.01 19.122-.002.001-.003.002-.004.002l-8.038 4.922c-5.524-9.025-5.255-20.891 1.574-29.786 4.963-6.466 12.338-9.99 19.893-10.279l.356 9.417v.002c-4.851.186-9.586 2.448-12.771 6.6z" fill="#97cc64" stroke-linecap="round"/><path d="m167.205 357.848c24.716 18.972 53.872 28.14 82.795 28.117v75.826c-45.051.035-90.467-14.245-128.966-43.797-7.42-5.696-14.358-11.786-20.808-18.22l53.621-53.621c4.141 4.129 8.595 8.039 13.358 11.695z" fill="#aaa"/><path d="m385.902 249.343h.05c-.193-34.979-13.825-69.564-39.81-95.485l53.621-53.621c40.567 40.468 61.808 94.494 62.018 149.106h.022v.657h-75.901z" fill="#d35ebe"/><path d="m-211.803-268.827 250-250h-250z" fill="#5652a7" transform="matrix(-1 0 0 -1 -173.60596 -787.654047)"/><path d="m332.775 142.154c-24.711-18.968-53.859-28.135-82.775-28.117v-75.829c45.044-.03 90.45 14.25 128.942 43.797 7.425 5.699 14.368 11.794 20.821 18.232l-53.621 53.621c-4.143-4.133-8.6-8.045-13.367-11.704z" fill="#fd5a3e"/><path d="m357.837 332.786c18.124-23.612 27.301-51.275 28.065-78.916v-3.87h75.901v176.04h-.022c-.276 9.3-3.899 18.311-10.681 25.06-.956.951-1.974 1.857-3.055 2.712-16.142 12.779-40.057 9.46-53.416-7.414-4.855-6.133-7.647-13.215-8.459-20.358h-.268v-13.566c-38.698 32.435-87.086 49.279-135.902 49.317v-75.826c35.204-.028 70.061-13.672 96.143-39.822 4.129-4.141 8.038-8.594 11.694-13.357z" fill="#ffd050"/><path d="m153.847 346.153-53.621 53.621c-40.738-40.632-61.989-94.934-62.029-149.774-.032-45.047 14.248-90.457 43.798-128.953 5.699-7.425 11.794-14.367 18.231-20.821 40.633-40.733 94.935-61.981 149.774-62.018v75.829c-35.206.023-70.066 13.663-96.152 39.811-4.133 4.144-8.046 8.601-11.705 13.368-18.971 24.713-28.139 53.865-28.118 82.784.025 35.207 13.668 70.068 39.822 96.153z" fill="#97cc64"/></svg>

<?xml version="1.0" encoding="utf-8"?>
<svg viewBox="0 0 500 500" xmlns="http://www.w3.org/2000/svg" xmlns:bx="https://boxy-svg.com" preserveAspectRatio="xMinYMin">
  <path d="M 142.143 167.216 C 123.172 191.929 114.004 221.081 114.025 250 L 38.197 250 C 38.165 204.953 52.445 159.543 81.995 121.047 C 87.694 113.622 93.789 106.68 100.226 100.226 L 153.848 153.848 C 149.715 157.992 145.802 162.449 142.143 167.216 Z M 448.045 453.812 C 431.903 466.591 407.988 463.272 394.629 446.398 C 389.774 440.265 386.982 433.183 386.17 426.04 L 385.902 426.04 L 385.902 412.474 C 347.204 444.909 298.816 461.753 250 461.791 L 250 385.965 C 285.204 385.937 320.061 372.293 346.143 346.143 L 451.1 451.1 C 450.144 452.051 449.126 452.957 448.045 453.812 Z M 167.205 357.848 C 191.921 376.82 221.077 385.988 250 385.965 L 250 461.791 C 204.949 461.826 159.533 447.546 121.034 417.994 C 113.614 412.298 106.676 406.208 100.226 399.774 L 153.847 346.153 C 157.988 350.282 162.442 354.192 167.205 357.848 Z M 385.902 249.343 L 385.952 249.343 C 385.759 214.364 372.127 179.779 346.142 153.858 L 399.763 100.237 C 440.33 140.705 461.571 194.731 461.781 249.343 L 461.803 249.343 L 461.803 250 L 385.902 250 Z M 332.775 142.154 C 308.064 123.186 278.916 114.019 250 114.037 L 250 38.208 C 295.044 38.178 340.45 52.458 378.942 82.005 C 386.367 87.704 393.31 93.799 399.763 100.237 L 346.142 153.858 C 341.999 149.725 337.542 145.813 332.775 142.154 Z M 153.848 153.848 L 100.226 100.226 C 140.859 59.493 195.161 38.245 250 38.208 L 250 114.037 C 214.794 114.06 179.934 127.7 153.848 153.848 Z M 357.837 332.786 C 375.961 309.174 385.138 281.511 385.902 253.87 L 385.902 250 L 461.803 250 L 461.803 426.04 L 461.781 426.04 C 461.505 435.34 457.882 444.351 451.1 451.1 L 346.143 346.143 C 350.272 342.002 354.181 337.549 357.837 332.786 Z M 38.197 250 L 114.025 250 C 114.05 285.207 127.693 320.068 153.847 346.153 L 100.226 399.774 C 59.488 359.142 38.237 304.84 38.197 250 Z" style="fill: rgb(170, 170, 170);"/>
  <path d="M 959.719 -348.102 L 959.769 -348.102 C 959.545 -388.658 941.255 -428.685 906.592 -455.291 C 847.028 -501.012 761.679 -489.791 715.96 -430.229 C 670.237 -370.667 681.458 -285.318 741.022 -239.597 C 800.584 -193.876 885.935 -205.097 931.654 -264.659 C 949.778 -288.271 958.955 -315.934 959.719 -343.575 Z M 1035.62 -348.102 L 1035.62 -171.405 L 1035.598 -171.405 C 1035.283 -160.795 1030.612 -150.56 1021.862 -143.633 C 1005.72 -130.854 981.805 -134.173 968.446 -151.047 C 963.591 -157.18 960.799 -164.262 959.987 -171.405 L 959.719 -171.405 L 959.719 -184.971 C 885.307 -122.603 775.067 -117.878 694.851 -179.451 C 602.071 -250.671 584.593 -383.618 655.812 -476.398 C 727.03 -569.18 859.981 -586.658 952.759 -515.44 C 1006.857 -473.914 1035.355 -411.402 1035.598 -348.102 Z" style="stroke-linecap: round; fill: rgb(151, 204, 100);"/>
  <line style="stroke: rgb(0, 0, 0);" x1="357.7018127441406" y1="356.232666015625" x2="357.7018127441406" y2="356.232666015625"/>
  <line style="stroke: rgb(0, 0, 0);" x1="301.7098388671875" y1="348.0596923828125" x2="301.7098388671875" y2="348.0596923828125"/>
  <path d="M -771.865 1283.908 L -771.836 1283.908 C -771.964 1260.839 -782.368 1238.071 -802.084 1222.937 C -807.186 1219.021 -812.62 1215.839 -818.26 1213.375 L -800.791 1173.929 C -792.088 1177.753 -783.701 1182.676 -775.823 1188.723 C -745.051 1212.344 -728.842 1247.902 -728.704 1283.908 L -728.691 1283.908 L -728.691 1369.186 L -787.078 1330.377 C -777.265 1317.167 -772.289 1301.819 -771.865 1286.483 Z" style="stroke-linecap: round; fill: rgb(151, 204, 100);"/>
  <path d="M -928.57 1244.503 C -954.578 1278.383 -948.195 1326.931 -914.314 1352.938 C -880.434 1378.945 -831.885 1372.562 -805.88 1338.682 C -805.626 1338.352 -805.376 1338.02 -805.128 1337.686 L -746.742 1376.495 L -746.742 1391.727 L -746.755 1391.727 C -746.933 1397.762 -749.59 1403.584 -754.567 1407.524 C -763.749 1414.793 -777.352 1412.905 -784.951 1403.307 C -787.713 1399.818 -789.301 1395.79 -789.763 1391.727 L -789.916 1391.727 L -789.916 1384.01 C -832.242 1419.486 -894.95 1422.174 -940.577 1387.15 C -993.352 1346.639 -1003.294 1271.016 -962.783 1218.241 C -928.32 1173.343 -868.443 1159.446 -818.842 1181.239 L -836.311 1220.685 C -868.125 1206.786 -906.48 1215.725 -928.57 1244.503 Z" style="stroke-linecap: round; fill: rgb(151, 204, 100);"/>
  <path transform="matrix(0.839525, 0, 0, 0.839525, -831.527832, 694.893311)" d="M 475.001 397.999 A 204.13 204.13 0 1 1 387.657 98.354 L 305 285 Z" style="fill: rgb(253, 90, 62);" bx:shape="pie 305 285 0 204.13 123.612 23.886 1@7db323cb"/>
  <path d="M -496.138 930.311 L -496.109 930.311 C -496.237 907.242 -506.641 884.474 -526.357 869.34 C -560.238 843.333 -608.786 849.716 -634.792 883.596 C -660.8 917.476 -654.417 966.024 -620.536 992.031 C -586.656 1018.038 -538.107 1011.655 -512.102 977.775 C -501.792 964.344 -496.573 948.609 -496.138 932.886 Z M -452.964 930.311 L -452.964 1030.82 L -452.977 1030.82 C -453.155 1036.855 -455.812 1042.677 -460.789 1046.617 C -469.971 1053.886 -483.574 1051.998 -491.173 1042.4 C -493.935 1038.911 -495.523 1034.883 -495.985 1030.82 L -496.138 1030.82 L -496.138 1023.103 C -538.464 1058.579 -601.172 1061.267 -646.799 1026.243 C -699.574 985.732 -709.516 910.109 -669.005 857.334 C -628.495 804.558 -552.87 794.616 -500.096 835.126 C -469.324 858.747 -453.115 894.305 -452.977 930.311 Z" style="stroke-linecap: round; fill: rgb(151, 204, 100);"/>
  <path transform="matrix(0.839525, 0, 0, 0.839525, -615.465088, 1170.302368)" d="M 130.909 391.59 A 204.13 204.13 0 1 1 272.279 486.49 L 299.122 321.197 A 36.671 36.671 0 1 0 273.725 304.148 Z" style="fill: rgb(253, 90, 62);" bx:shape="pie 305 285 36.671 204.13 238.522 189.224 1@b974490a"/>
  <path d="M -282.129 1409.048 L -282.1 1409.048 C -282.228 1385.979 -292.632 1363.211 -312.348 1348.077 C -346.229 1322.07 -394.777 1328.453 -420.783 1362.333 C -446.791 1396.213 -440.408 1444.761 -406.527 1470.768 C -372.647 1496.775 -324.098 1490.392 -298.093 1456.512 C -287.783 1443.081 -282.564 1427.346 -282.129 1411.623 Z M -238.955 1409.048 L -238.955 1509.557 L -238.968 1509.557 C -239.146 1515.592 -241.803 1521.414 -246.78 1525.354 C -255.962 1532.623 -269.565 1530.735 -277.164 1521.137 C -279.926 1517.648 -281.514 1513.62 -281.976 1509.557 L -282.129 1509.557 L -282.129 1501.84 C -324.455 1537.316 -387.163 1540.004 -432.79 1504.98 C -485.565 1464.469 -495.507 1388.846 -454.996 1336.071 C -414.486 1283.295 -338.861 1273.353 -286.087 1313.863 C -255.315 1337.484 -239.106 1373.042 -238.968 1409.048 Z" style="stroke-linecap: round; fill: rgb(151, 204, 100);"/>
  <path d="M -880.208 1706.368 L -880.208 1806.877 L -880.221 1806.877 C -880.399 1812.912 -883.056 1818.734 -888.033 1822.674 C -897.215 1829.943 -910.818 1828.055 -918.417 1818.457 C -921.179 1814.968 -922.767 1810.94 -923.229 1806.877 L -923.382 1806.877 L -923.382 1799.16 C -965.708 1834.636 -1028.416 1837.324 -1074.043 1802.3 C -1090.006 1790.047 -1102.05 1774.581 -1109.964 1757.507 L -1071.586 1739.734 C -1046.301 1794.33 -971.395 1801.081 -936.755 1751.885 C -902.116 1702.69 -933.722 1634.444 -993.647 1629.043 C -1023.681 1626.336 -1052.593 1641.149 -1067.941 1667.106 L -1104.452 1645.518 C -1101.994 1641.365 -1099.261 1637.315 -1096.249 1633.391 C -1055.739 1580.615 -980.114 1570.673 -927.34 1611.183 C -896.568 1634.804 -880.359 1670.362 -880.221 1706.368 Z" style="stroke-linecap: round; fill: rgb(151, 204, 100);"/>
  <path d="M -933.609 930.311 L -933.58 930.311 C -933.708 907.242 -944.112 884.474 -963.828 869.34 C -978.712 857.915 -996.427 852.741 -1013.818 853.403 L -1015.448 810.302 C -988.354 809.267 -960.755 817.327 -937.567 835.126 C -906.795 858.747 -890.586 894.305 -890.448 930.311 L -890.435 930.311 L -890.435 1010.369 L -946.439 973.388 C -938.201 960.978 -933.997 946.927 -933.609 932.886 Z" style="stroke-linecap: round; fill: rgb(253, 90, 62);"/>
  <path d="M -949.579 977.799 C -948.476 976.362 -947.432 974.898 -946.445 973.413 L -890.441 1010.393 L -890.441 1030.844 L -890.454 1030.844 C -890.632 1036.878 -893.289 1042.701 -898.266 1046.641 C -907.448 1053.909 -921.051 1052.022 -928.65 1042.424 C -931.412 1038.935 -933 1034.907 -933.462 1030.844 L -933.615 1030.844 L -933.615 1023.127 C -960.725 1045.85 -996.197 1055.121 -1030.187 1049.647 L -1023.272 1007.066 C -996.12 1011.434 -967.498 1001.143 -949.579 977.799 Z" style="fill: rgb(255, 208, 80);"/>
  <path d="M -1058.08 991.95 C -1047.545 1000.037 -1035.592 1004.992 -1023.339 1006.962 L -1030.254 1049.542 C -1049.331 1046.47 -1067.941 1038.753 -1084.343 1026.162 C -1096.383 1016.92 -1106.193 1005.851 -1113.684 993.642 L -1076.891 971.114 C -1072.086 978.936 -1065.796 986.027 -1058.08 991.95 Z" style="stroke-linecap: round; fill: rgb(170, 170, 170);"/>
  <path transform="matrix(0.025124, 0.073081, 0.07053, -0.024247, -286.244751, 1110.018799)" d="M 165.292 136.169 A 204.13 204.13 0 1 1 100.968 278.686 L 174.583 280.964 A 130.479 130.479 0 1 0 215.699 189.868 Z" bx:shape="pie 305 285 130.479 204.13 316.811 271.772 1@dc57bfa5"/>
  <path d="M -1072.214 883.661 C -1092.273 909.791 -1093.064 944.646 -1076.833 971.156 C -1076.839 971.16 -1076.844 971.163 -1076.85 971.167 L -1113.626 993.684 C -1138.904 952.391 -1137.67 898.1 -1106.427 857.399 C -1083.718 827.814 -1049.974 811.689 -1015.407 810.367 L -1013.777 853.456 C -1013.776 853.46 -1013.776 853.464 -1013.775 853.468 C -1035.969 854.315 -1057.634 864.667 -1072.214 883.661 Z" style="stroke-linecap: round; fill: rgb(151, 204, 100);"/>
  <path d="M -308.262 1135.753 L -308.256 1135.753 C -308.283 1130.711 -310.558 1125.735 -314.866 1122.427 C -318.12 1119.931 -321.991 1118.8 -325.792 1118.945 L -326.149 1109.525 C -320.227 1109.299 -314.194 1111.06 -309.126 1114.95 C -302.402 1120.113 -298.86 1127.884 -298.829 1135.753 L -298.827 1135.753 L -298.827 1153.25 L -311.066 1145.168 C -309.266 1142.456 -308.347 1139.385 -308.262 1136.316 Z" style="stroke-linecap: round; fill: rgb(253, 90, 62);"/>
  <path d="M -311.753 1146.132 C -311.512 1145.818 -311.283 1145.498 -311.068 1145.173 L -298.828 1153.255 L -298.828 1157.725 L -298.83 1157.725 C -298.87 1159.044 -299.449 1160.316 -300.538 1161.177 C -302.545 1162.766 -305.517 1162.354 -307.179 1160.256 C -307.782 1159.493 -308.129 1158.613 -308.23 1157.725 L -308.264 1157.725 L -308.264 1156.038 C -314.189 1161.004 -321.941 1163.031 -329.37 1161.835 L -327.858 1152.528 C -321.923 1153.483 -315.668 1151.234 -311.753 1146.132 Z" style="fill: rgb(255, 208, 80);"/>
  <path d="M -335.465 1149.225 C -333.163 1150.992 -330.551 1152.075 -327.873 1152.506 L -329.385 1161.812 C -333.554 1161.14 -337.621 1159.454 -341.206 1156.702 C -343.837 1154.682 -345.981 1152.263 -347.618 1149.594 L -339.577 1144.671 C -338.527 1146.38 -337.152 1147.93 -335.465 1149.225 Z" style="stroke-linecap: round; fill: rgb(170, 170, 170);"/>
  <path d="M -338.554 1125.558 C -342.939 1131.269 -343.112 1138.885 -339.564 1144.68 C -339.566 1144.681 -339.567 1144.682 -339.568 1144.682 L -347.606 1149.604 C -353.13 1140.579 -352.861 1128.713 -346.032 1119.818 C -341.069 1113.352 -333.694 1109.828 -326.139 1109.539 L -325.783 1118.956 C -325.783 1118.957 -325.783 1118.958 -325.783 1118.958 C -330.634 1119.144 -335.369 1121.406 -338.554 1125.558 Z" style="stroke-linecap: round; fill: rgb(151, 204, 100);"/>
  <path d="M 167.205 357.848 C 191.921 376.82 221.077 385.988 250 385.965 L 250 461.791 C 204.949 461.826 159.533 447.546 121.034 417.994 C 113.614 412.298 106.676 406.208 100.226 399.774 L 153.847 346.153 C 157.988 350.282 162.442 354.192 167.205 357.848 Z" style="fill: rgb(170, 170, 170);"/>
  <path d="M 385.902 249.343 L 385.952 249.343 C 385.759 214.364 372.127 179.779 346.142 153.858 L 399.763 100.237 C 440.33 140.705 461.571 194.731 461.781 249.343 L 461.803 249.343 L 461.803 250 L 385.902 250 Z" style="fill: rgb(211, 94, 190);"/>
  <path d="M -211.803 -268.827 L 38.197 -518.827 L -211.803 -518.827 L -211.803 -268.827 Z" style="fill: rgb(86, 82, 167);" transform="matrix(-1, 0, 0, -1, -173.60596, -787.654047)"/>
  <path d="M 332.775 142.154 C 308.064 123.186 278.916 114.019 250 114.037 L 250 38.208 C 295.044 38.178 340.45 52.458 378.942 82.005 C 386.367 87.704 393.31 93.799 399.763 100.237 L 346.142 153.858 C 341.999 149.725 337.542 145.813 332.775 142.154 Z" style="fill: rgb(253, 90, 62);"/>
  <path d="M 357.837 332.786 C 375.961 309.174 385.138 281.511 385.902 253.87 L 385.902 250 L 461.803 250 L 461.803 426.04 L 461.781 426.04 C 461.505 435.34 457.882 444.351 451.1 451.1 C 450.144 452.051 449.126 452.957 448.045 453.812 C 431.903 466.591 407.988 463.272 394.629 446.398 C 389.774 440.265 386.982 433.183 386.17 426.04 L 385.902 426.04 L 385.902 412.474 C 347.204 444.909 298.816 461.753 250 461.791 L 250 385.965 C 285.204 385.937 320.061 372.293 346.143 346.143 C 350.272 342.002 354.181 337.549 357.837 332.786 Z" style="fill: rgb(255, 208, 80);"/>
  <path d="M 153.847 346.153 L 100.226 399.774 C 59.488 359.142 38.237 304.84 38.197 250 C 38.165 204.953 52.445 159.543 81.995 121.047 C 87.694 113.622 93.789 106.68 100.226 100.226 C 140.859 59.493 195.161 38.245 250 38.208 L 250 114.037 C 214.794 114.06 179.934 127.7 153.848 153.848 C 149.715 157.992 145.802 162.449 142.143 167.216 C 123.172 191.929 114.004 221.081 114.025 250 C 114.05 285.207 127.693 320.068 153.847 346.153 Z" style="fill: rgb(151, 204, 100);"/>
</svg>
